www/assets/icons/playlist_add_check_circle.svg

<svg xmlns="http://www.w3.org/2000/svg" width="24" height="24" viewBox="0 0 24 24" fill='currentColor'><path d="M12 2C6.48 2 2 6.48 2 12s4.48 10 10 10 10-4.48 10-10S17.52 2 12 2M7 7h7v2H7zm0 3h7v2H7zm3 5H7v-2h3zm4.05 3.36-2.83-2.83 1.41-1.41 1.41 1.41L17.59 12 19 13.41z"/></svg>

<svg width="24" height="24" viewBox="0 0 24 24" xmlns="http://www.w3.org/2000/svg" fill='currentColor'><path d="M12 2C6.48 2 2 6.48 2 12C2 17.52 6.48 22 12 22C17.52 22 22 17.52 22 12C22 6.48 17.52 2 12 2ZM7 7H14V9H7V7ZM7 10H14V12H7V10ZM10 15H7V13H10V15ZM14.05 18.36L11.22 15.53L12.63 14.12L14.04 15.53L17.59 12L19 13.41L14.05 18.36Z"/></svg>
